libs/ui/packages/crypto-icons/src/svg/XPRT.svg

<svg xmlns="http://www.w3.org/2000/svg" width="512" height="512" viewBox="0 0 512 512" fill="none"><path fill="#e50913" d="M345.171 132.464h-171V170h171z"/><path fill="#000" d="M348.443 265.394q0 19.844-9.109 36.435-9.108 16.266-27.977 26.351-18.868 10.085-46.846 10.085h-34.483v81.98h-55.63V191.872h90.113q27.327 0 46.195 9.434 18.868 9.435 28.303 26.026 9.434 16.59 9.434 38.062m-88.161 28.628q15.94 0 23.748-7.483t7.808-21.145q0-13.664-7.808-21.146t-23.748-7.482h-30.254v57.256z"/></svg>

<svg width="512" height="512" viewBox="0 0 512 512" fill="none" xmlns="http://www.w3.org/2000/svg">
<path d="M345.171 132.464H174.171V170H345.171V132.464Z" fill="#E50913"/>
<path d="M348.443 265.394C348.443 278.623 345.407 290.768 339.334 301.829C333.262 312.673 323.936 321.457 311.357 328.18C298.778 334.903 283.163 338.265 264.511 338.265H230.028V420.245H174.398V191.872H264.511C282.729 191.872 298.127 195.017 310.706 201.306C323.285 207.596 332.719 216.271 339.009 227.332C345.298 238.392 348.443 251.08 348.443 265.394ZM260.282 294.022C270.909 294.022 278.825 291.528 284.03 286.539C289.235 281.551 291.838 274.503 291.838 265.394C291.838 256.285 289.235 249.236 284.03 244.248C278.825 239.26 270.909 236.766 260.282 236.766H230.028V294.022H260.282Z" fill="black"/>
</svg>
